X: 31235
T: Paddy Fahey's
R: jig
M: 6/8
K: Cdorian
|:G,CD EDE|FEF G2 c|cBG EFG|FDC B,G,F,|
G,CD EDE|FEF G2 c|cBG EFG|1 FDB, C2 B,:|2 FDB, CEG||
|:~c3 Bcd|cBG EFG|EFD ~B3|dcB GAB|
c2 d edc|BGc BGF|E2 C DGF|1 DCB, CEG:|2 DCB, C3||

